X:1
T:Io son gia stanco
T:Io son gia stanco
T:Girolamo Scotto
T:Source : Madrigali a tre voci---Venetia---G.Scotto---1541. Editor : André Vierendeels (15/06/16).
T:Notes : Original clefs : C1, C3, F3 Editorial accidentals above the staff Original note values have been halved Text by Francesco Patrarca (Canzionere) "Quinti toni" 
T:©
T:©
T:©
T:©
T:©
C:Girolamo Scotto
Z:©
%%score [ 1 [ 2 3 ] ]
L:1/8
Q:1/4=96
M:2/2
K:F
V:1 treble nm="Soprano" snm="S"
V:2 treble-8 nm="Tenor 1" snm="T 1"
V:3 treble-8 nm="Tenor 2" snm="T 2"
V:1
 z4 F4 | E2 E2 G4- | G2 G2 B4 | A4 F2 F2 | c6 c2 | B2 B2 e2 e2 | d6 cB | A2 c2 G3 A | %8
w: Io|son gia stan-|* co di|pen- sar, si|co- me'i|miei pen- sier in|voi _ _|_ stan- chi _|
 Bc d2 G2 c2- | c2 B2 c4- | c4 c4- | c8 | z8 | B4 F2 F2 | B3 c d2 c2- | c2 G2 A2 G2 | E2 G4 A2- | %17
w: _ _ _ no so-||* no,|_||è co- me|vi- * * *|* t'an- chor non|ab- ban- do-|
 A2 G3 F F2- | F2 E2 F4 | z2 F2 F2 F2 | c6 c2 | d2 c2 B2 G2 | A2 FG AB c2- |"^-natural" c2 B2 c4- | %24
w: |* * no,|per fug- gir|de so-|spir si gra- ve|so- * * * * *|* * me.|
 c8 ||"^SECUNDA PARS" C4 C2 C2 | G6 G2 | F3 G AB c2- | c2 G2 G2 G2 | B8 | A2 c2 d2 c2 | %31
w: _|E co- me'a|dir del|vi- * * * so,|_ è de le|chio-|me, è de le|
 B2 G2 A2 c2- | c2 B2 c2 G2 | A3 G F2 D2 | E2 G4 A2- | AG G4 F2 | G2 E2 D4 | E2 C2 D2 C2- | %38
w: chio _ _ _|_ _ me, è|de beg- gli'oc- chi'ond'|io sem- pre|_ ra- gio- *|no, non e|man- ca- ta'ho- mai|
 C2 F4 E2 | F2 A4 G2 | A2 DE FG A2- | A2 G2 A4 | z2 c2 c2 c2 | F2 B2 B2 B2 | c4 B2 A2 | d2 c4 G2 | %46
w: _ la vo-|ce, e'l _|_ _ _ _ _ suo-|* * no,|di, è not-|te chia- man- do'il|vo- * stro|no- * me,|
 z2 G2 G2 G2 | D2 D2 F2 F2 | E2 A3 GAB | c2 d3 c c2- |"^-natural" c2 B2 c4- | c8 |] %52
w: di, è not-|te chia- man do'il|vo- stro no- * *||* * me.|_|
V:2
 F4 F2 F2 | c6 c2 |"^b" B2 e3 d d2- | d2 c2 d2 d2 | e2 e2 f3 e | d2 g2 g2 g2 | b2 b2 a2 f2- | %7
w: Io son gia|stan- co|di pen- * *|* * sar, si|co- me'i miei pen-|sier in voi stan-|chi non so- *|
 fd e3 def | g2 d2 e2 f2 | d4 c2 f2- | f2 e2 f3 g | a3 g/f/ g2 e2- | ef g4 f2 | g2 d2 d2 d2 | %14
w: |no, stan- chi non|so- * *||||no, è co- me|
 g4 f4 | e4 d4 | c6 c2 | A2 c2 BAGF | G4 F2 A2 | B2 c2 d2 c2 | ABcd ef g2- | gf f4 e2 | %22
w: vi- t'an-|chor non|ab- ban-|do- * * * * *|* no, per|fug- gir de so-|spir _ _ _ _ _ _|_ _ _ si|
 f2 d2 e2 c2 | d4 c4- | c8 || z8 | z8 | F4 F2 F2 | c6 c2 |"^-natural" d2 _e2 d3 e | fg a3 g f2- | %31
w: gra- ve so- *|* me.|_|||E co- me'a|dir del|vi- so'è de _|_ _ _ _ _|
 f2 e2 f3 e | d4 c4- | c4 z2 =B2 | c6 c2 | d2 B2 A2 A2 | G2 c4 B2 | c2 A2 G4 | A4 z4 | %39
w: * le chio- *|* me,|_ è|de be-|gli'oc- chi'ond' io sem-|pre ra- *|* * gio-|no,|
 z2 F2 G2 G2 | F2 B2 A2 F2 | B4 A2 f2- | f2 e4 f2 | d4 z2 g2 | g2 g2 d2 f2 | f2 f2 e2 e2 | %46
w: non e man-|ca- ta'ho- mai la|vo- ce, e'l|_ suo- *|no, di,|è not- te chia-|man- do'il vo- stro|
 d4 c2 B2 | B2 B2 A2 A2 | c2 c2 d2 d2 | f4 c4 | d4 c4- | c8 |] %52
w: no- me, di,|è not- te chia-|man- do'il vo- stro|no- *|* me.|_|
V:3
"^b""^b" z8 | C4 C2 C2 | G6 G2 | F4 B4 | A2 c2 F2 F2 | G2 G2 C2 c2 | B2 G2 d4- | d2 A2 c4 | %8
w: |Io son gia|stan- co|di pen-|sar, si co- me'i|miei pen- sier in|voi stan- chi|_ non so-|
 G4 B2 F2 | G4 z4 | z2 C2 F4- | F2 F2 c4- | c2 B2 A4 | G3 A B4- | B2 G2 B2 A2- | AB c4 B2 | %16
w: |no,|è co-|* me vi-|* t'an- chor|non _ ab-|* ban- do- *||
 c2 C2 E2 F2- | F2 C2 D4 | C4 z2 F2 | G2 A2 B2 F2- | F2 F2 C2 c2 | B2 A2 G4 | F2 B2 A2 A2 | %23
w: no, non ab- ban|_ _ do-|no, per|fug- gir de so-|* spir si gra-|ve so- *|mo, si gra- ve|
 G4 C4- | C8 || z8 | z8 | z8 | C4 C2 C2 | G6 G2 | F2 F2 D2 A2 | G4 F4 | G4 C2 E2 | F3 E D2 G2 | %34
w: so- me.|_||||E co- me'a|dir del|vi- so'e de le|chio- *|* me, è|de be- gli'oc- chi'ond'|
 C3 D E2 F2 | D2 G2 D4 | z2 C2 G2 G2 | C2 F2 F2 E2 | F2 D2 G4 | F2 D2 B4 | A2 G2 F2 D2 | G4 D3 E | %42
w: io sem- pre ra-|gio- * no,|non e man-|ca- ta'ho- mai la|vo- c'e'l suo-|no, e'l suo-|||
 FGAB c2 F2 | B2 G2 G2 G2 | CDEF G2 A2 | B2 FG AB c2- | c2 B2 c2 G2 | G2 G2 D2 D2 | A4 D2 D2 | %49
w: |no, di, è not-|te _ _ _ _ chia-|man- do'il _ vo- stro no-|* * me, di,|è not- te chia-|man do'il vo-|
 A2 B2 A4 | G4 C4- | C8 |] %52
w: stro no- *|* me.|_|

